X: 1
T: The Bonnie Lass o' Bon-Accord (Am)
C: J.S.Skinner
B: J.S.Skinner "Harp and Claymore" p.3
Z: John Chambers <jc:trillian.mit.edu>
%%slurgraces 1
M: C
L: 1/16
K: Am
 E2 \
| "Am"A3B {AB}c3B A2A,2 C2E2  \
| A^GAB "Dm"cAdc "E7"B4- B2E2 \
|1 "Am"A3B c3B A2C2 "Dm"D2F2  \
| "E7"{EF}EDEF E2^G,2 "Am"A,4- A,2 |
:|2 "Am"A3B c3B A2c2 "Dm"d2f2  \
| "E7"{ef}edef e2^G2 "Am"A4- A2 :| \
|: (3e^f^g \
| "A7"a3=g f2e2 "Dm"f2e2 d2=c2  \
| "Am"cBAB "Dm"cAdc "E7"B4- B2 (3e^f^g |
| "A7"a3=g f2e2 "Dm"dcBc defd  \
| "Am"edef "E7"e2^G2 "Am"A4- A2 (3e^f^g \
| "A7"a3=g f2e2 "Dm"f2e2 d2=c2 |
| "Am"cBAB "Dm"cAdc "E7"B4- B2 ^c2 \
| "A"A,^CEA ^cea^g aecA "A7"^GAE=G  \
| "D"^FDFA "E7"^G^fHe^g "A"{g}a4- a2 |]
